cssgg/arrow-top-right-o.svg

<svg
  width="24"
  height="24"
  viewBox="0 0 24 24"
  fill="none"
  xmlns="http://www.w3.org/2000/svg"
>
  <path
    d="M14 13.9633H16V7.96331H10V9.96331H12.5858L7.25623 15.2929L8.67044 16.7071L14 11.3775L14 13.9633Z"
    fill="currentColor"
  />
  <path
    fill-rule="evenodd"
    clip-rule="evenodd"
    d="M1 12C1 5.92487 5.92487 1 12 1C18.0751 1 23 5.92487 23 12C23 18.0751 18.0751 23 12 23C5.92487 23 1 18.0751 1 12ZM3 12C3 7.02944 7.02944 3 12 3C16.9706 3 21 7.02944 21 12C21 16.9706 16.9706 21 12 21C7.02944 21 3 16.9706 3 12Z"
    fill="currentColor"
  />
</svg>

<svg viewBox="0 0 24 24" xmlns="http://www.w3.org/2000/svg"><g><path d="M14 13.96h2v-6h-6v2h2.58l-5.33 5.32 1.41 1.41 5.32-5.33v2.58Z"/><path fill-rule="evenodd" d="M1 12C1 5.92 5.92 1 12 1c6.07 0 11 4.92 11 11 0 6.07-4.93 11-11 11C5.92 23 1 18.07 1 12Zm2 0c0-4.98 4.02-9 9-9 4.97 0 9 4.02 9 9 0 4.97-4.03 9-9 9 -4.98 0-9-4.03-9-9Z"/></g></svg>
